X:1046
T:Old Dudeen, The
T:McGann's
R:reel
C:John McGrath (1900-1955)
D:John McSherry
Z:id:hn-reel-1046
M:C|
L:1/8
K:Bm
dBBA ~F3A | dcde fgfe | dBBA FEFA |1 (3Bcd cA ~B3c :|2 BdcA ~B3g ||
fdBc d3e | f2bf afeg | fdBd ABde | fbaf e3g |
fdBc d3e | f2bf a2fa | b3f a2fa | bfaf egfe || 

